packages/icons/svg/32/Expand.svg

<svg width="32" height="32" viewBox="0 0 32 32" fill="none" xmlns="http://www.w3.org/2000/svg">
<path d="M9 12V9H12C12.5523 9 13 8.55228 13 8C13 7.44772 12.5523 7 12 7H7V12C7 12.5523 7.44772 13 8 13C8.55228 13 9 12.5523 9 12Z" fill="#858585"/>
<path d="M20 9H23V12C23 12.5523 23.4477 13 24 13C24.5523 13 25 12.5523 25 12V7H20C19.4477 7 19 7.44772 19 8C19 8.55228 19.4477 9 20 9Z" fill="#858585"/>
<path d="M9 23H12C12.5523 23 13 23.4477 13 24C13 24.5523 12.5523 25 12 25H7V20C7 19.4477 7.44772 19 8 19C8.55228 19 9 19.4477 9 20V23Z" fill="#858585"/>
<path d="M23 20V23H20C19.4477 23 19 23.4477 19 24C19 24.5523 19.4477 25 20 25H25V20C25 19.4477 24.5523 19 24 19C23.4477 19 23 19.4477 23 20Z" fill="#858585"/>
</svg>

<svg width="32" height="32" fill="none" xmlns="http://www.w3.org/2000/svg" viewBox="0 0 32 32"><path d="M9 12V9h3a1 1 0 100-2H7v5a1 1 0 102 0zM20 9h3v3a1 1 0 102 0V7h-5a1 1 0 100 2zM9 23h3a1 1 0 110 2H7v-5a1 1 0 112 0v3zM23 20v3h-3a1 1 0 100 2h5v-5a1 1 0 10-2 0z" fill="currentColor"></path></svg>
